X:1
T:No.2 Vater, vergib ihnen, denn sie wissen nicht, was sie tun
L:1/8
Q:1/4=52
M:3/4
K:Bb
V:1 bass nm="Piano" snm="Pno."
V:1
"^Largo"!p! .B,,.B,,.B,,.B,,.B,,.B,, |!f! B,,B,,B,,!p!B,,B,,B,, |!f! B,,B,,B,,!p!B,,B,,B,, | %3
!f! B,,B,,B,,!p!B,,B,,B,, | E,E,C,C,F,F, |!p! B,,B,,B,,B,,B,,B,, |!f! B,,B,,B,,!p!B,,B,,B,, | %7
!f! B,,B, B,, z z2 | z (F,,_G,,F,,) z2 | z (B,,A,,B,,!p!C,D,) | E,2 z2!p! F,2 | B,,3 (B,,A,,G,,) | %12
!f! ^F,,F,F,!p!G,G,G, | ^F,F,F,F, !wedge!F, z |!f! =F,F,F,!p!F,F,F, | =E,E,E,E,E,E, | %16
 F,=E,D,D, G,,G,, | C,C,C,C,C,C, |!f! !wedge!C,!wedge!C,!wedge!C, (C,_D,C,) | C,,C,C, (C,_D,C,) | %20
 B,,2 z2 z2 | C,2 z2 z2 | z6 | z6 | z2 z!p! B,,B,,B,, | A,, z B,, z C, z | F,,2 z2 z2 | z6 | z6 | %29
 z2 z B,,B,,B,, | A,, z B,, z C, z | F,,(_A,,=A,,B,,=B,,C,) | _D,D,(D,C,B,,)B,, | %33
!<(! _A,,A,,A,,A,,!f!A,,A,,!<)! | _D,2 z2 z!p! =G,, |!<(! _A,,A,,A,,A,,!f!A,,A,,!<)! | %36
 _D,2 z2 z!p! =G,, |!<(! _A,,A,,A,,A,,!f!A,,A,,!<)! |!p! _D,D,D,D,D,D, | _D,4 z2 | %40
!p! B,,B,,B,,B,,B,,B,, |!f! B,,B,,B,,!p!B,,B,,B,, |!f! B,,B,,B,,!p!B,,B,,B,, | %43
!f! =B,,B,,B,,!p!B,,B,,B,, |!f! C,C,C,!p!C,C,C, |!f! _A,,A,,A,, z z!p! A,, | (G,,2 G,,) z z2 | z6 | %48
 z6 | z!p! (_DCB,_A,G,) | (F,G,_A,=A,B,C) | !wedge!_D z !wedge!C z !wedge!C, z | %52
 F,,F,,F,,F,,F,,F,, |!f! F,,F,,F,,!p!F,,F,,F,, |!f! F,,F,,F,,!p!F,,F,,F,, | %55
!f! _G,,G,,G,,!p!G,,G,,G,, | =G,,G,,=A,,A,,B,,B,, | E,E,E,E, =E,E, | F,F,F,_E,D,C, | %59
 B,,B,,B,,B,,B,,B,, |!f! B,,B,,B,,!p!B,,B,,B,, |!f! B,,B,,B,,!p!B,,B,,B,, | %62
!f! B,,B,,B,,!p!B,,B,,B,, | E,E,C,C,!p!F,F, | B,,2 B, z z2 | z (F,,=G,,F,,) z2 | z (B,,A,,B,,) z2 | %67
 z6 | z2 z2 z A, | B,E, F,F,F,F, | G,2 z2 z2 | z6 | z6 | z2 z2 z E, | D, z E, z F, z | B,,2 z4 | %76
 z6 | z6 | z2 z2 z E, | D, z E, z F, z | z"_cresc." (_D,=D,E,=E,F,) | _G,G,(G,!<(!F,E,)E,!<)! | %82
 !wedge!_D,!wedge!D,!wedge!D,!wedge!D, !wedge!B,,!wedge!B,, | %83
 _A,,!wedge!_A,!wedge!A,!wedge!A, !wedge!F,!wedge!F, | !wedge!E,!wedge!E,!wedge!E,!wedge!E, C,C, | %85
 B,,B,B,B, G,G, | F,2 z2 z2 | z6 | z2 z"_cresc." F,F,F, | (F,6 |!f! !fermata!F,4) z2 | %91
!p! !fermata!G,4 z2 | E, z C, z F, z | B,,2 z G,F,G, | _A,2 z (A,G,A,) | =A,B, z2 z2 | z6 | %97
 z2 z!f! E,F,F, | B,,!p!B,,B,,B,,B,,B,, | B,,B,,B,,B,,B,,B,, | B,,B,,B,,B,,B,,B,, | %101
 B,, z B,, z B,, z |!pp! B,, z B,, z B,, z | !fermata!B,,4 z2 |] %104

